!!!COM:	la Rue, Pierre de
!!!CDT:	~1452///-1518/11/20
!!!OTL:	Considera Israel
!!!AGN:	Motet
!!!SCT:	Rue2002
!!!SCA:	Rue2002
!!!voices:	4
**kern	**kern	**kern	**kern
*staff4	*staff3	*staff2	*staff1
*Ivox	*Ivox	*Ivox	*Ivox
*I"Bassus	*I"Tenor	*I"Contra	*I"Discantus
*I'B	*I'T	*I'C	*I'D
*>[A,B,C,D]	*>[A,B,C,D]	*>[A,B,C,D]	*>[A,B,C,D]
*>A	*>A	*>A	*>A
*clefF4	*clefGv2	*clefGv2	*clefG2
*k[]	*k[]	*k[]	*k[]
*M2/1	*M2/1	*M2/1	*M2/1
*met(C|)	*met(C|)	*met(C|)	*met(C|)
!!section: Considera Israel
!!!OMD: Considera Israel
=1-	=1-	=1-	=1-
1r	[0A	0r	0r
[1AA	.	.	.
=2	=2	=2	=2
2AA/]	0A]	0r	0r
4BB/	.	.	.
4C/	.	.	.
1D	.	.	.
=3	=3	=3	=3
1.C	1A	1r	1r
.	1A	[1c	[1e
2AA/	.	.	.
=4	=4	=4	=4
0AA	0A	2c\]	2e/]
.	.	4d\	4f/
.	.	4e\	4g/
.	.	1f	1a
=5	=5	=5	=5
0r	1r	1.e	1.g
.	[1c	.	.
.	.	4f\	4a/
.	.	4g\	4b\
=6	=6	=6	=6
0AA	2c\]	1a	1cc
.	4d\	.	.
.	4e\	.	.
.	2f\	1a	1cc
.	[2e\	.	.
=7	=7	=7	=7
0AA	2e\]	4a\	1.cc
.	.	4g\	.
.	2.d\	4f\	.
.	.	4e\	.
.	.	1f	.
.	4c\	.	.
.	2c\	.	4b\
.	.	.	4a/
=8	=8	=8	=8
0GG	0d	0g	1.b
.	.	.	2e/
=9	=9	=9	=9
1AA	1r	2.c\	1e
.	.	4d\	.
2.AA/	[1c	4e\	[1a
.	.	4f\	.
.	.	[2e\	.
4BB/	.	.	.
=10	=10	=10	=10
2C/	2c\]	2e\]	2a/]
2D\	2B\	1d	4g/
.	.	.	4f/
1BB	1G	.	1g
.	.	2B\	.
=11	=11	=11	=11
0AA	1A	2c\	1c
.	.	2A/	.
.	2.A/	1e	[1cc
.	4B\	.	.
=12	=12	=12	=12
1FF	2c\	1f	2cc\]
.	2d\	.	4b\
.	.	.	4a/
1GG	1B	1d	1b
=13	=13	=13	=13
1AA	0A	1c	1e
2.AA/	.	2.c\	[1a
4BB/	.	4d\	.
=14	=14	=14	=14
2C/	1A	2e\	2a/]
2D\	.	2f\	4g/
.	.	.	4f/
1GG	1B	2d\	2.g/
.	.	2e\	.
.	.	.	4c/
=15	=15	=15	=15
0AA;	0A;	0E;	0c;
=16	=16	=16	=16
1BB	0r	0r	0r
1D	.	.	.
=17	=17	=17	=17
1C	1E	0r	0r
1F	1A	.	.
=18	=18	=18	=18
1E	1G	0r	0r
2r	1c	.	.
[2A\	.	.	.
=19	=19	=19	=19
2A\]	1B	0r	0r
2.G\	.	.	.
.	1e	.	.
4F\	.	.	.
4E\	.	.	.
4D\	.	.	.
=20	=20	=20	=20
2C/	2e\	0r	0r
4BB/	2.d\	.	.
4AA/	.	.	.
2GG/	.	.	.
.	4c\	.	.
2D\	4B\	.	.
.	4A/	.	.
=21	=21	=21	=21
2E\	2G/	0r	1c
2C/	1c	.	.
1D	.	.	1f
.	2B\	.	.
=22	=22	=22	=22
[0C	[0c	0r	1e
.	.	.	1a
=23	=23	=23	=23
0C]	0c]	1e	1g
.	.	2e\	[1cc
.	.	2e\	.
=24	=24	=24	=24
0r	0r	2f\	2cc\]
.	.	2d\	2.b\
.	.	2.e\	.
.	.	.	4a/
.	.	.	4g/
.	.	4d\	4f/
=25	=25	=25	=25
0r	0r	4c\	2.e/
.	.	4B\	.
.	.	2.A/	.
.	.	.	4d/
.	.	.	2e/
.	.	4G/	.
.	.	[2A/	2f/
=26	=26	=26	=26
0r	0r	4A/]	2.e/
.	.	4G/	.
.	.	2.c\	.
.	.	.	4f/
.	.	.	4g/
.	.	4A/	4f/
.	.	2B\	4e/
.	.	.	4d/
=27	=27	=27	=27
0C	0c	1E	1c
.	.	2r	2r
.	.	2G/	2e/
=28	=28	=28	=28
1C	1c	1G	1e
1C	[1c	1G	1e
=29	=29	=29	=29
1GG	2c\]	1G	1d
.	4B\	.	.
.	4A/	.	.
1GG	1B	1G	1d
=30	=30	=30	=30
0C	0c	1E	1c
.	.	2r	2r
.	.	2e\	2g/
=31	=31	=31	=31
2r	2r	1e	1g
2E\	2c\	.	.
2E\	2c\	1e	1g
2E\	2c\	.	.
=32	=32	=32	=32
1D	4d\	4f\	1f
.	4c\	4e\	.
.	4B\	4d\	.
.	4A/	4c\	.
1D	1B	1d	1f
=33	=33	=33	=33
0AA	0c	1e	1e
.	.	2r	2r
.	.	2e\	2cc\
=34	=34	=34	=34
2r	2r	1e	1cc
2A\	2c\	.	.
2A\	2c\	1f	1cc
2A\	2c\	.	.
=35	=35	=35	=35
0G	4d\	1g	1.b
.	4c\	.	.
.	4B\	.	.
.	4A/	.	.
.	1B	4g\	.
.	.	4f\	.
.	.	4e\	4a/
.	.	4d\	4g/
=36	=36	=36	=36
0C	1c	1e	1g
.	2r	1c	1r
.	[2A/	.	.
=37	=37	=37	=37
2r	2A/]	2r	1r
1D	2A/	1f	.
.	2A/	.	2r
2D\	2A/	2f\	[2a/
=38	=38	=38	=38
2D\	1d	2f\	2a/]
2D\	.	2f\	2a/
2D\	1d	2f\	2a/
2D\	.	2f\	2a/
=39	=39	=39	=39
1GG	1B	1g	1dd
1GG	1B	1g	1dd
=40	=40	=40	=40
1AA	0A	1c	1cc
1C	.	1e	1cc
=41	=41	=41	=41
1D	2r	1f	1a
.	1d	.	.
2BB/	.	[1f	1r
2AA/	2c\	.	.
=42	=42	=42	=42
1D	0A	1f]	2r
.	.	.	1dd
1D	.	1f	.
.	.	.	2cc\
=43	=43	=43	=43
1D	2.d\	1f	2a/
.	.	.	1dd
.	4c\	.	.
[1D	2B\	1f	.
.	2A/	.	4cc\
.	.	.	4b\
=44	=44	=44	=44
1D]	2.d\	1f	2a/
.	.	.	1b
.	4c\	.	.
1E	2B\	2e\	.
.	2G/	[2c\	[2cc\
=45	=45	=45	=45
1F	1A	2c\]	4cc\]
.	.	.	4b\
.	.	2d\	1a
1E	1B	1e	.
.	.	.	2g#i/
=46	=46	=46	=46
1AA	0A	1c	1a
2r	.	2r	2r
2AA/	.	2c\	2a/
=47	=47	=47	=47
1AA	1r	1e	1cc
1AA	1A	1f	1cc
=48	=48	=48	=48
1GG	1d	1g	1b
1GG	1d	1g	1b
=49	=49	=49	=49
0GG	2d\	1.g	0dd
.	2d\	.	.
.	1B	.	.
.	.	4f\	.
.	.	4e\	.
=50	=50	=50	=50
1AA	2A/	1e	1cc
.	2.c\	.	.
1AA	.	1e	2r
.	4B\	.	.
.	2A/	.	2cc\
=51	=51	=51	=51
1E	2G/	1g	2b\
.	1c	.	2g/
2C/	.	2e\	2a/
2D\	2B\	2f\	[2b\
=52	=52	=52	=52
2E\	2G/	2e\	2b\]
2F\	2A/	2d\	2a/
1E	1B	1e	2.a/
.	.	.	4g#i/
=53	=53	=53	=53
[0AA	0A	0e	[0a
=54	=54	=54	=54
0AA]	1r	1r	0a]
.	1E	1e	.
=55	=55	=55	=55
0r	2E/	2e\	0r
.	1F	1d	.
.	[2E/	[2c\	.
=56	=56	=56	=56
0r	2E/]	2c\]	0r
.	4D/	4B\	.
.	4C/	4A/	.
.	1D	1B	.
=57	=57	=57	=57
1.C	1C	0c	0r
.	[1G	.	.
2C/	.	.	.
=58	=58	=58	=58
1C	2G/]	0r	0r
.	2G/	.	.
1BB	1G	.	.
=59	=59	=59	=59
2AA/	1A	0r	1r
1C	.	.	.
.	1c	.	1e
[2E\	.	.	.
=60	=60	=60	=60
2E\]	2c\	0r	2e/
2.D\	1d	.	1f
4C/	.	.	.
[2AA/	[2c\	.	[2e/
=61	=61	=61	=61
2AA/]	4c\]	0r	2e/]
.	4B\	.	.
2C/	1A	.	4d/
.	.	.	4c/
1BB	.	.	1d
.	2G#i/	.	.
=62	=62	=62	=62
1AA	1A	1.e	1c
1r	1r	.	[1g
.	.	2e\	.
=63	=63	=63	=63
0r	0r	1c	2g/]
.	.	.	2g/
.	.	1B	1g
=64	=64	=64	=64
0r	0r	2A/	1a
.	.	1d	.
.	.	.	2b\
.	.	[2c\	4cc\
.	.	.	4b\
=65	=65	=65	=65
0r	0r	2c\]	4a/
.	.	.	4g/
.	.	4B\	1a
.	.	4A/	.
.	.	1B	.
.	.	.	2g#i/
=66	=66	=66	=66
0AA	0E	[0A	0a
=67	=67	=67	=67
0AA	0E	0A]	1cc
.	.	.	1cc
=68	=68	=68	=68
1E	1G	0r	2b\
.	.	.	2b\
1F	1A	.	1a
=69	=69	=69	=69
1E	1B	1e	0g
2r	2r	1e	.
2C/	2c\	.	.
=70	=70	=70	=70
1E	1B	2r	2r
.	.	2e\	2g/
2r	2r	2f\	1a
2AA/	[2c\	[2e\	.
=71	=71	=71	=71
1E	2c\]	2e\]	2r
.	2B\	2e\	2g/
1r	[1A	2f\	2.a/
.	.	2c\	.
.	.	.	4b\
=72	=72	=72	=72
2r	2A/]	1f	2cc\
2D\	4B\	.	2.dd\
.	4c\	.	.
2D\	1d	1f	.
.	.	.	4cc\
2D\	.	.	4b\
.	.	.	4a/
=73	=73	=73	=73
1E	1B	[0e	0g
2r	2r	.	.
2C/	2c\	.	.
=74	=74	=74	=74
1E	1B	0e_	2r
.	.	.	2g/
1AA	1A	.	1a
=75	=75	=75	=75
2r	1c	0e]	1g
2C/	.	.	.
1E	1B	.	2r
.	.	.	2g/
=76	=76	=76	=76
2AA/	1A	0r	2.a/
2D\	.	.	.
.	.	.	4b\
2C/	2e\	.	2cc\
2BB/	2d\	.	[2dd\
=77	=77	=77	=77
1C	2.e\	0r	2dd\]
.	.	.	2.cc\
.	4f\	.	.
1GG	1d	.	.
.	.	.	4b\
.	.	.	2b\
=78	=78	=78	=78
0C	0c	2r	0cc
.	.	2g\	.
.	.	1g	.
=79	=79	=79	=79
2r	0r	2f\	0r
2G\	.	1e	.
1G	.	.	.
.	.	[2d\	.
=80	=80	=80	=80
2F\	0r	2d\]	0r
1E	.	2c\	.
.	.	2B\	.
[2D\	.	[2d\	.
=81	=81	=81	=81
2D\]	0r	4d\]	0r
.	.	4c\	.
2.F\	.	1A	.
4E\	.	.	.
2C/	.	[2c\	.
=82	=82	=82	=82
2AA/	0r	4c\]	0r
.	.	4B\	.
2.E\	.	2G/	.
.	.	2E/	.
4D\	.	.	.
2BB/	.	2G/	.
=83	=83	=83	=83
1AA	0r	2A/	1r
.	.	1c	.
1E	.	.	1g
.	.	2B\	.
=84	=84	=84	=84
1E	1c	2E/	2g/
.	.	1e	2g/
1E	2B\	.	1g
.	2B\	2e\	.
=85	=85	=85	=85
1F	1A	1c	1a
1A	1F	2c\	1cc
.	.	[2f\	.
=86	=86	=86	=86
1G	1G	2f\]	1b
.	.	2.e\	.
1F	1A	.	2a/
.	.	4d\	.
.	.	2d\	[2a/
=87	=87	=87	=87
1E	1B	1e	4a/]
.	.	.	4g/
.	.	.	1e
2AA/	2c\	1e	.
2AA/	2c\	.	[2cc\
=88	=88	=88	=88
1AA	1c	2.e\	2cc\]
.	.	.	4b\
.	.	4f\	4a/
2GG/	2.d\	2g\	2b\
2D\	.	[2d\	[2a/
.	4c\	.	.
=89	=89	=89	=89
1E	2B\	2d\]	2a/]
.	2G/	2c\	1g
1D	1A	1d	.
.	.	.	2f#i/
=90	=90	=90	=90
1E	1G	1B	[0g
2E\	2r	2r	.
[2C/	[2E/	[2G/	.
=91	=91	=91	=91
2C/]	4E/]	4G/]	0g_
.	4F/	4A/	.
4BB/	4G/	4B\	.
4AA/	4A/	4c\	.
1GG	2B\	2d\	.
.	[2G/	[2B\	.
=92	=92	=92	=92
2GG/	4G/]	4B\]	0g]
.	4A/	4c\	.
2GG/	4B\	4d\	.
.	4c\	4e\	.
1GG	2d\	1d	.
.	2B\	.	.
=93	=93	=93	=93
0C	2c\	1G	1r
.	4B\	.	.
.	4A/	.	.
.	[1G	2r	2r
.	.	[2c\	[2e/
=94	=94	=94	=94
0r	1G]	4c\]	4e/]
.	.	4d\	4f/
.	.	4e\	4g/
.	.	4f\	4a/
.	1G	2g\	2b\
.	.	[2e\	[2g/
=95	=95	=95	=95
0GG	1B	4e\]	4g/]
.	.	4f\	4a/
.	.	2.g\	4b\
.	.	.	4cc\
.	1B	.	2dd\
.	.	4f\	.
.	.	2d\	2b\
=96	=96	=96	=96
1AA	1A	0c	2cc\
.	.	.	4b\
.	.	.	4a/
[1C	1E	.	[1g
=97	=97	=97	=97
1C]	0r	1e	1g]
1BB	.	1d	1g
=98	=98	=98	=98
[0AA	1r	1c	1a
.	1E	1c	[1cc
=99	=99	=99	=99
1AA]	1F	1A	1cc]
1GG	1G	1B	1b
=100	=100	=100	=100
1FF	0A	1c	2.a/
.	.	.	4g/
1AA	.	[1c	4f/
.	.	.	4e/
.	.	.	[2f/
=101	=101	=101	=101
1C	1G	1c]	2f/]
.	.	.	1e
1D	1F	1A	.
.	.	.	2d/
=102	=102	=102	=102
0AA	0E	1A	0e
.	.	2r	.
.	.	2A/	.
=103	=103	=103	=103
2r	0r	2c\	1r
2AA/	.	2c\	.
2C/	.	1c	2r
2C/	.	.	2e/
=104	=104	=104	=104
1C	2r	1e	2g/
.	2E/	.	2g/
1C	2G/	1e	1g
.	2G/	.	.
=105	=105	=105	=105
1C	1G	2.c\	2.e/
.	.	4d\	4f/
2C/	2r	4e\	4g/
.	.	4f\	4a/
2BB/	2d\	2d\	2b\
=106	=106	=106	=106
2AA/	1e	2c\	2cc\
1GG	.	2.g\	1b
.	1d	.	.
.	.	4f\	.
2GG/	.	2d\	2g/
=107	=107	=107	=107
0C	2c\	[0e	2a/
.	2G/	.	1g
.	4A/	.	.
.	4B\	.	.
.	4c\	.	2c/
.	4d\	.	.
=108	=108	=108	=108
2GG/	2B\	0e]	4d/
.	.	.	4c/
2AA/	1A	.	4B/
.	.	.	4A/
1E	.	.	1B
.	4G/	.	.
.	4A/	.	.
=109	=109	=109	=109
1E	4B\	2r	2r
.	4c\	.	.
.	2B\	1e	2G/
2.AA/	1A	.	4A/
.	.	.	4B/
.	.	2c\	4c/
4BB/	.	.	4d/
=110	=110	=110	=110
2GG/	1r	2d\	2B/
4AA/	.	4c\	1A
4BB/	.	4d\	.
4C/	2r	4e\	.
4D\	.	4f\	.
2BB/	2D/	2d\	2g/
=111	=111	=111	=111
1.AA	4C/	0e	4a/
.	4D/	.	4b\
.	4E/	.	4cc\
.	4F/	.	4dd\
.	2E/	.	2cc\
2E\	2G/	.	4b\
.	.	.	4a/
=112	=112	=112	=112
2.F\	4A/	0r	4g/
.	4B\	.	4f/
.	4c\	.	1a
4D\	4d\	.	.
1E	1B	.	.
.	.	.	2g#i/
=113	=113	=113	=113
[0AAl	[0Al	1r	[0al
.	.	[1c	.
=114	=114	=114	=114
0AA_	0A_	2c\]	0a_
.	.	2E/	.
.	.	1F	.
=115	=115	=115	=115
0AA]	0A]	0El	0a]
!!LO:LB:i:g=z
=116||	=116||	=116||	=116||
*>B	*>B	*>B	*>B
*clefF4	*clefGv2	*clefGv2	*clefG2
*k[]	*k[]	*k[]	*k[]
*M2/1	*M2/1	*M2/1	*M2/1
*met(C|)	*met(C|)	*met(C|)	*met(C|)
!!section: Sagita Jonathe
!!!OMD: Sagita Jonathe
1r	1E	0r	0r
1AA	1E	.	.
=117	=117	=117	=117
1.AA	2F/	0r	0r
.	1E	.	.
2BB/	2D/	.	.
=118	=118	=118	=118
1AA	2F/	0r	0r
.	1E	.	.
2GG/	.	.	.
2FF/	2D/	.	.
=119	=119	=119	=119
1AA	2C/	0r	0r
.	1E	.	.
1GG	.	.	.
.	[2D/	.	.
=120	=120	=120	=120
1GG	2D/]	0r	0r
.	1D	.	.
1D	.	.	.
.	[2F/	.	.
=121	=121	=121	=121
1D	1F]	0r	0r
2C/	2E/	.	.
2AA/	[2A/	.	.
=122	=122	=122	=122
1BB	2A/]	0r	0r
.	2G/	.	.
1AA	2A/	.	.
.	4G/	.	.
.	4E/	.	.
=123	=123	=123	=123
2D\	2F/	0r	0r
4C/	2E/	.	.
4AA/	.	.	.
2BB/	2r	.	.
2AA/	2E/	.	.
=124	=124	=124	=124
2r	2E/	1c	0r
2E\	2E/	.	.
2E\	1G	2c\	.
2E\	.	2c\	.
=125	=125	=125	=125
0F	[0A	1c	0r
.	.	1c	.
=126	=126	=126	=126
1D	0A]	1d	0r
2r	.	2r	.
2D\	.	2d\	.
=127	=127	=127	=127
2C/	0r	2e\	0r
2.D\	.	2.f\	.
4C/	.	4e\	.
2D\	.	2f\	.
=128	=128	=128	=128
2C/	0r	2e\	0r
2AA/	.	4c\	.
.	.	4d\	.
2.C/	.	4e\	.
.	.	4f\	.
.	.	[2g\	.
4D\	.	.	.
=129	=129	=129	=129
4E\	0r	4g\]	0r
4F\	.	4f\	.
2.G\	.	4e\	.
.	.	4d\	.
.	.	2e\	.
4F\	.	.	.
4E\	.	[2d\	.
4D\	.	.	.
=130	=130	=130	=130
1E	0r	2d\]	0r
.	.	2c#i\	.
1D	.	1d	.
=131	=131	=131	=131
1r	1B	1r	0r
1G	1B	1d	.
=132	=132	=132	=132
1G	1B	1d	0r
2G\	1B	2d\	.
2G\	.	2d\	.
=133	=133	=133	=133
[0C	0c	0e	0r
=134	=134	=134	=134
0C]	2r	1e	0r
.	2G/	.	.
.	2A/	2e\	.
.	[2c\	2e\	.
=135	=135	=135	=135
0r	2c\]	2.d\	0r
.	2B\	.	.
.	.	4c\	.
.	1c	2A/	.
.	.	[2e\	.
=136	=136	=136	=136
0r	1G	2e\]	0r
.	.	1d	.
.	2F/	.	.
.	2E/	2c\	.
=137	=137	=137	=137
0r	1G	2B\	0r
.	.	2.e\	.
.	1G	.	.
.	.	4f\	.
.	.	[2g\	.
=138	=138	=138	=138
0r	2G/	4g\]	0r
.	.	4f\	.
.	2A/	4e\	.
.	.	4d\	.
.	4A/	4c\	.
.	4G/	4B\	.
.	4F/	[2f\	.
.	4E/	.	.
=139	=139	=139	=139
0r	2D/	2f\]	0r
.	2E/	1e	.
.	1F	.	.
.	.	2d\	.
=140	=140	=140	=140
1r	1E	[0e	0r
1C	2r	.	.
.	2A/	.	.
=141	=141	=141	=141
1C	2G/	0e]	0r
.	2.c\	.	.
[1C	.	.	.
.	4B\	.	.
.	4A/	.	.
.	4G/	.	.
=142	=142	=142	=142
1C]	4F/	0r	0r
.	4E/	.	.
.	1A	.	.
1BB	.	.	.
.	2G#i/	.	.
=143	=143	=143	=143
0AA	0A	1e	0r
.	.	1e	.
=144	=144	=144	=144
0r	1A	1f	0r
.	1A	1e	.
=145	=145	=145	=145
1GG	1B-i	0d	0r
1GG	1B-i	.	.
=146	=146	=146	=146
1D	1A	0d	0r
1D	1F	.	.
=147	=147	=147	=147
1GG	2G/	0d	0r
.	1B-	.	.
1G	.	.	.
.	4A/	.	.
.	4G/	.	.
=148	=148	=148	=148
2F\	2A/	0d	0r
2G\	2G/	.	.
2D\	2F/	.	.
[2F\	2D/	.	.
=149	=149	=149	=149
2F\]	2A/	0c	0r
4E\	1A	.	.
4D\	.	.	.
1E	.	.	.
.	2G/	.	.
=150	=150	=150	=150
0D	1A	0d	0r
.	1A	.	.
=151	=151	=151	=151
0r	0A	1e	0r
.	.	2e\	.
.	.	[2f\	.
=152	=152	=152	=152
0r	2.A/	2f\]	0r
.	.	1e	.
.	4B\	.	.
.	2c\	.	.
.	[2B\	2d\	.
=153	=153	=153	=153
0r	4B\]	2B\	0r
.	4A/	.	.
.	1A	1c	.
.	[2G/	2B\	.
=154	=154	=154	=154
0r	4G/]	1A	0r
.	4F#i/	.	.
.	2F#i/	.	.
.	2G/	1r	.
.	[2B-i\	.	.
=155	=155	=155	=155
1D	2B-\]	1d	0r
.	2.A/	.	.
2D\	.	2d\	.
.	4F/	.	.
2D\	4A/	2d\	.
.	4B\	.	.
=156	=156	=156	=156
0A	2c\	2c\	0r
.	1d	1f	.
.	2c\	2e\	.
=157	=157	=157	=157
1B-i	2G/	2d\	0r
.	1d	1g	.
1A	.	.	.
.	2c\	2f\	.
=158	=158	=158	=158
2B-i\	1d	1g	0r
1G	.	.	.
.	2B\	2e\	.
[2A\	[2c\	[2f\	.
=159	=159	=159	=159
4A\]	4c\]	4f\]	0r
4G\	4B\	4e\	.
2F\	1A	1d	.
1E	.	.	.
.	2G/	2c#i\	.
=160	=160	=160	=160
0Dl	0Al	0dl	0r
!!LO:LB:i:g=z
=161||	=161||	=161||	=161||
*>C	*>C	*>C	*>C
*clefF4	*clefGv2	*clefGv2	*clefG2
*k[]	*k[]	*k[]	*k[]
*M2/1	*M2/1	*M2/1	*M2/1
*met(C|)	*met(C|)	*met(C|)	*met(C|)
!!section: Filie Israel
!!!OMD: Filie Israel
0r	0r	1r	0e
.	.	[1A	.
=162	=162	=162	=162
0r	0r	1A]	1e
.	.	1A	[1e
=163	=163	=163	=163
0r	0r	0A	1e]
.	.	.	1f
=164	=164	=164	=164
0r	0r	1B	1g
.	.	1c	[1e
=165	=165	=165	=165
0r	0r	0A	1e]
.	.	.	[1e
=166	=166	=166	=166
0r	0r	1r	1e]
.	.	1A	2f/
.	.	.	[2e/
=167	=167	=167	=167
0r	0r	1A	2e/]
.	.	.	2c/
.	.	2B-i\	2d/
.	.	[2A/	[2c/
=168	=168	=168	=168
0r	0r	2A/]	2c/]
.	.	1F	2c/
.	.	.	2d/
.	.	2G/	[2e/
=169	=169	=169	=169
0r	0r	2A/	4e/]
.	.	.	4c/
.	.	2G/	2e/
.	.	2B-i\	2d/
.	.	[2A/	2c/
=170	=170	=170	=170
0r	0r	2A/]	1a
.	.	2F/	.
.	.	1G	1b
=171	=171	=171	=171
0r	0r	2.A/	0cc
.	.	4B\	.
.	.	4c\	.
.	.	4d\	.
.	.	2e\	.
=172	=172	=172	=172
0r	0r	2f\	0cc
.	.	2e\	.
.	.	2f\	.
.	.	[2e\	.
=173	=173	=173	=173
0r	0r	2e\]	1b
.	.	4d\	.
.	.	4c\	.
.	.	2d\	1b
.	.	2e\	.
=174	=174	=174	=174
0r	0r	0A	2.cc\
.	.	.	4b\
.	.	.	2a/
.	.	.	4g/
.	.	.	4f/
=175	=175	=175	=175
0r	0r	1r	4e/
.	.	.	4f/
.	.	.	4g/
.	.	.	4a/
.	.	[1e	2b\
.	.	.	[2cc\
=176	=176	=176	=176
0r	0r	1e]	2cc\]
.	.	.	2b\
.	.	1e	2cc\
.	.	.	[2b\
=177	=177	=177	=177
0r	0r	1d	2b\]
.	.	.	4a/
.	.	.	4g/
.	.	1d	2a/
.	.	.	2b\
=178	=178	=178	=178
0r	0r	2.e\	0e
.	.	4d\	.
.	.	2c\	.
.	.	4B\	.
.	.	4A/	.
=179	=179	=179	=179
0G	0r	4G/	1r
.	.	4A/	.
.	.	4B\	.
.	.	4c\	.
.	.	2d\	[1b
.	.	[2e\	.
=180	=180	=180	=180
1G	0r	2e\]	1b]
.	.	2d\	.
1G	.	2e\	1b
.	.	[2d\	.
=181	=181	=181	=181
1F	0r	2d\]	1a
.	.	4c\	.
.	.	4B\	.
1F	.	2c\	1a
.	.	2d\	.
=182	=182	=182	=182
1G	0r	0G	2.b\
.	.	.	4a/
2.E\	.	.	2g/
.	.	.	4f/
4F\	.	.	4e/
=183	=183	=183	=183
1G	0r	1r	4d/
.	.	.	4e/
.	.	.	4f/
.	.	.	4g/
2D\	.	[1d	2a/
[2G\	.	.	[2b-i\
=184	=184	=184	=184
2G\]	0r	1d]	2b-i\]
2F\	.	.	2a/
2G\	.	1d	2b-i\
[2F\	.	.	[2a/
=185	=185	=185	=185
2F\]	0r	1c	2a/]
4E\	.	.	4g/
4D\	.	.	4f/
2E\	.	1c	2g/
2F\	.	.	2a/
=186	=186	=186	=186
1G	0r	0B	0d
1G	.	.	.
=187	=187	=187	=187
1G	0r	0B	1r
1G	.	.	1g
=188	=188	=188	=188
0E	0r	0e	1g
.	.	.	1g
=189	=189	=189	=189
0A	0r	2c\	0e
.	.	1A	.
.	.	[2A/	.
=190	=190	=190	=190
2F\	0r	2A/]	0a
1D	.	2d\	.
.	.	2A/	.
[2D\	.	[2d\	.
=191	=191	=191	=191
4D\]	0r	4d\]	2f/
4E\	.	4c\	.
2F\	.	2A/	1d
2G\	.	2B\	.
[2D\	.	[2A/	[2d/
=192	=192	=192	=192
1D]	0r	4A/]	4d/]
.	.	4B\	4e/
.	.	4c\	2f/
.	.	4d\	.
2C/	.	2e\	2g/
2D\	.	[2f\	2d/
=193	=193	=193	=193
2E\	0r	4f\]	1g
.	.	4e\	.
2C/	.	1e	.
1D	.	.	1f
.	.	2d\	.
=194	=194	=194	=194
0AA	0r	0e	1e
.	.	.	1r
=195	=195	=195	=195
1.E	0r	0r	1.g
2E\	.	.	2g/
=196	=196	=196	=196
1F	0r	1.c	1a
1A	.	.	1cc
.	.	2c\	.
=197	=197	=197	=197
1G	0r	1d	1b
2.F\	.	1f	1a
4E\	.	.	.
=198	=198	=198	=198
2C/	0r	1e	2.g/
1G	.	.	.
.	.	.	4a/
.	.	1d	2b\
2D\	.	.	[2a/
=199	=199	=199	=199
2.F\	0r	1c	2a/]
.	.	.	4g/
4G\	.	.	4f/
[1A	.	1c	1e
=200	=200	=200	=200
1A]	0r	4A/	1r
.	.	4B\	.
.	.	4c\	.
.	.	4d\	.
[1A	.	2e\	[1cc
.	.	[2f\	.
=201	=201	=201	=201
1A]	0r	2f\]	1cc]
.	.	1e	.
[1G	.	.	[1b
.	.	4d\	.
.	.	4c\	.
=202	=202	=202	=202
2G\]	0r	2d\	1b]
2E\	.	1e	.
1F	.	.	1a
.	.	2d\	.
=203	=203	=203	=203
0E	0r	0e	0g
=204	=204	=204	=204
*M3/1	*M3/1	*M3/1	*M3/1
*met(3)	*met()	*met()	*met(3)
!	!LO:N:vis=0	!LO:N:vis=0	!
1E	0.r	0.r	1g
1E	.	.	1g
1C	.	.	1e
=205	=205	=205	=205
!	!LO:N:vis=0	!	!
*	*	*M3/1	*
*	*	*met(3)	*
1E	0.r	1c	1g
1.F	.	1c	1.a
.	.	1A	.
2E\	.	.	2g/
=206	=206	=206	=206
!	!LO:N:vis=0	!	!
1C	0.r	1c	1g
1.G	.	1.d	1.b
2A\	.	2c\	2a/
=207	=207	=207	=207
!	!LO:N:vis=0	!	!
1A	0.r	1c	1a
1.D	.	1.f	1.dd
2A\	.	2e\	2cc\
=208	=208	=208	=208
!	!LO:N:vis=0	!	!
1A	0.r	1e	1.cc
1F	.	0d	.
.	.	.	2a/
1G	.	.	1b
=209	=209	=209	=209
!	!LO:N:vis=0	!	!
1C	0.r	1r	1e
1.F	.	1.c	1.a
2G\	.	2B\	2g/
=210	=210	=210	=210
!	!LO:N:vis=0	!	!
1G	0.r	1B	1.g
0D	.	0A	.
.	.	.	2e/
.	.	.	1f
=211	=211	=211	=211
!	!LO:N:vis=0	!	!
1r	0.r	1G	1B-
1.A	.	1.c	1.f
2G\	.	2B\	2e/
=212	=212	=212	=212
!	!LO:N:vis=0	!	!
1E	0.r	0B	0e
0F	.	.	.
.	.	1A	1d
=213	=213	=213	=213
!	!LO:N:vis=0	!	!
1E	0.r	1B	[0.el
0C	.	0c	.
=214	=214	=214	=214
!	!LO:N:vis=0	!	!
0.El	0.r	0.Bl	0.e]
!!LO:LB:i:g=z
=215||	=215||	=215||	=215||
*>D	*>D	*>D	*>D
*clefF4	*clefGv2	*clefGv2	*clefG2
*k[]	*k[]	*k[]	*k[]
*M2/1	*M2/1	*M2/1	*M2/1
*met(C|)	*met(C|)	*met(C|)	*met(C|)
!!section: Doleo super te
!!!OMD: Doleo super te
[0E	[0B	0G	1r
.	.	.	[1e
=216	=216	=216	=216
1E]	1B]	1G	1e]
1C	1c	[1G	1e
=217	=217	=217	=217
0C	0c	1G]	0e
.	.	[1G	.
=218	=218	=218	=218
1C	1c	1G]	0g
[1C	[1c	1G	.
=219	=219	=219	=219
1C]	1c]	0G	1g
[1C	[1c	.	[1e
=220	=220	=220	=220
2C/]	1c]	1G	1e]
2D\	.	.	.
1E	1c	[1G	1g
=221	=221	=221	=221
0AA	0c	2G/]	1a
.	.	4F/	.
.	.	4E/	.
.	.	1F	[1cc
=222	=222	=222	=222
0GG	0d	1r	2cc\]
.	.	.	2b\
.	.	1G	[1b
=223	=223	=223	=223
1GG	1B	1D	1b]
1GG	1B	[1G	[1g
=224	=224	=224	=224
0C	1.c	1G]	2g/]
.	.	.	2e/
.	.	[1c	[1e
.	4B\	.	.
.	4A/	.	.
=225	=225	=225	=225
1C	1G	1c]	1e]
1C	1G	1c	1g
=226	=226	=226	=226
2GG/	1G	2d\	1g
1C	.	1e	.
.	1G	.	2e/
4BB/	.	4d\	[2g/
4AA/	.	4c\	.
=227	=227	=227	=227
0GG	0G	2B\	2g/]
.	.	1c	4f/
.	.	.	4e/
.	.	.	1d
.	.	2B\	.
=228	=228	=228	=228
0C	0G	[0c	1r
.	.	.	[1g
=229	=229	=229	=229
1r	1r	0c]	1g]
[1C	1G	.	1g
=230	=230	=230	=230
2C/]	0c	1r	1a
2BB/	.	.	.
2AA/	.	1F	[1cc
2GG/	.	.	.
=231	=231	=231	=231
1FF	1A	1F	1cc]
1FF	1A	2F/	1a
.	.	2F/	.
=232	=232	=232	=232
0GG	0G	2D/	0b
.	.	1d	.
.	.	4c\	.
.	.	4B\	.
=233	=233	=233	=233
1GG	1G	1d	1g
1GG	1G	1d	1g
=234	=234	=234	=234
1D	1A	0d	2.f/
.	.	.	4g/
1D	1F	.	2a/
.	.	.	2b\
=235	=235	=235	=235
1C	1G	1e	2.cc\
.	.	.	4b\
1C	2E/	1e	4a/
.	.	.	4g/
.	2F/	.	[2a/
=236	=236	=236	=236
1E	1G	2B\	2a/]
.	.	2c\	1g
1D	1A	1d	.
.	.	.	2f#i/
=237	=237	=237	=237
[0GG	1G	1B	[0g
.	2r	2r	.
.	[2E/	[2G/	.
=238	=238	=238	=238
0GG_	4E/]	4G/]	0g]
.	4F/	4A/	.
.	4G/	4B\	.
.	4A/	4c\	.
.	4B\	4d\	.
.	4c\	4G/	.
.	[2d\	[2g\	.
=239	=239	=239	=239
0GG]	2d\]	2g\]	0r
.	1c	4f\	.
.	.	4e\	.
.	.	1d	.
.	2B\	.	.
=240	=240	=240	=240
1r	0c	1c	1g
1C	.	1e	1g
=241	=241	=241	=241
1C	1r	1c	1e
1GG	1B	1d	[1g
=242	=242	=242	=242
1C	2c\	1e	1g]
.	2c\	.	.
1E	2B\	1e	1g
.	2B\	.	.
=243	=243	=243	=243
1F	1A	2c\	2a/
.	.	2A/	1cc
1E	1G	2.B\	.
.	.	.	[2b\
.	.	4c\	.
=244	=244	=244	=244
1D	1F	1d	2b\]
.	.	.	1a
1C	1G	1e	.
.	.	.	[2g/
=245	=245	=245	=245
1D	1D	2A/	2g/]
.	.	2B\	1f
1AA	1E	1c	.
.	.	.	[2e/
=246	=246	=246	=246
1D	1F	1A	2e/]
.	.	.	4d/
.	.	.	4c/
1D	1F	[1A	1d
=247	=247	=247	=247
1AA	[0E	1A]	1e
2r	.	2r	2r
2AA/	.	2e\	2e/
=248	=248	=248	=248
1E	2E/]	1e	1g
.	2C/	.	.
1E	2C/	2e\	1g
.	2C/	2e\	.
=249	=249	=249	=249
1D	1F	1A	1a
1D	1F	1d	[1a
=250	=250	=250	=250
0AA	1E	0c	1a]
.	1C	.	1cc
=251	=251	=251	=251
1GG	1G	1B	2.dd\
.	.	.	4cc\
2GG/	2.d\	1B	4dd\
.	.	.	4cc\
[2G\	.	.	4b\
.	4c\	.	4a/
=252	=252	=252	=252
4G\]	4d\	1d	2b\
4A\	4c\	.	.
2F\	4B\	.	1a
.	4A/	.	.
1E	1B	1e	.
.	.	.	2g#i/
=253	=253	=253	=253
2AA/	0A	2c\	0a
1D	.	2.d\	.
.	.	4c\	.
2D\	.	2A/	.
=254	=254	=254	=254
1BB-i	2r	4B-i\	0r
.	.	4A/	.
.	1d	4G/	.
.	.	4F/	.
1BB-i	.	[1G	.
.	2d\	.	.
=255	=255	=255	=255
1AA	1c	2G/]	0r
.	.	4F/	.
.	.	4E/	.
1AA	1c	[1F	.
=256	=256	=256	=256
2.GG/	2.d\	2F/]	1r
.	.	2.G/	.
4AA/	4c\	.	.
4BB/	4d\	.	[1dd
4C/	4c\	4A/	.
[2D\	4B\	4B\	.
.	4A/	4c\	.
=257	=257	=257	=257
4D\]	2B\	4d\	1dd]
4C/	.	4e\	.
4BB/	1A	1f	.
4AA/	.	.	.
1BB	.	.	1dd
.	2G/	4e\	.
.	.	4d\	.
=258	=258	=258	=258
1AA	1A	2f\	2cc\
.	.	1e	2cc\
1C	[1G	.	2cc\
.	.	4d\	2cc\
.	.	4c\	.
=259	=259	=259	=259
[0GG	1G]	2d\	2b\
.	.	4B\	4g/
.	.	4c\	4a/
.	1D	4d\	4b\
.	.	4e\	4cc\
.	.	2d\	[2dd\
=260	=260	=260	=260
0GG]	0G	2B\	2dd\]
.	.	2c\	1cc
.	.	1d	.
.	.	.	2b\
=261	=261	=261	=261
1r	1r	1c	1cc
1C	1G	1c	1g
=262	=262	=262	=262
1FF	1F	1c	1a
1C	1E	1c	1g
=263	=263	=263	=263
1D	1A	1F	1f
1AA	1A	1c	1e
=264	=264	=264	=264
1.D	1.F	1.d	1.f
2GG/	2G/	2B\	2d/
=265	=265	=265	=265
0GG	0G	1B	[0d
.	.	2r	.
.	.	[2g\	.
=266	=266	=266	=266
2r	2r	2g\]	0d]
1G	1B	4f\	.
.	.	4e\	.
.	.	2d\	.
4F\	4A/	2G/	.
4E\	4G/	.	.
=267	=267	=267	=267
2D\	2F/	1.d	2r
2GG/	2G/	.	1g
[1GG	[1D	.	.
.	.	2B\	4f/
.	.	.	4e/
=268	=268	=268	=268
1GG]	2D/]	1B	2d/
.	2E/	.	2G/
1C	1E	1c	[1e
=269	=269	=269	=269
1.D	1.F	1.A	2e/]
.	.	.	4d/
.	.	.	4c/
.	.	.	1d
2GG/	2D/	2B\	.
=270	=270	=270	=270
0GG	1.D	0B	[0g
.	2E/	.	.
=271	=271	=271	=271
1r	0E	0r	1g]
1G	.	.	1e
=272	=272	=272	=272
1.G	[0El	[0Bl	[0el
2E\	.	.	.
=273	=273	=273	=273
0El	0E]	0B]	0e]
==	==	==	==
*-	*-	*-	*-
!!!RDF**kern: l=long note in original notation
!!!RDF**kern: i=editorial accidental
!!!ENC:	Chris Gage 12-06-2012
!!!END:	2013/07/18/
!!!EED:	Jesse Rodin
!!!EEV:	2013/07/20/
!!!ONB:	Translated from MusicXML and edited on 2013/07/20/ by Craig Sapp
!!muse2ps: C^@{COM}^i2I150v85,85,85,150Q16
